X:1
T:АВТОМОБИЛЬ.
T:АВТОМОБИЛЬ.                 THE MOTOR-CAR.
T:Уанъ-Степъ.                                                             One-Step.
T:Arr. by A. CELLI.
T:Арр. А. ЧЕЛЛИ.
T:B. 10 Г.
T:B. 10 Г.
C:Arr. by A. CELLI.
Z:Арр. А. ЧЕЛЛИ.
Z:B. 10 Г.
%%score { ( 1 3 ) | 2 }
L:1/8
Q:1/4=90
M:2/4
K:Eb
V:1 treble nm="Piano" snm="Pno."
V:3 treble 
V:2 bass 
V:1
"^Allegro."!f!{B,CD} [G,B,E][G,B,D][G,B,E][B,EG]- | [B,EG][B,E^F][B,EG][B,=FA] | %2
 [B,GB][^F=A][GB]!>![Ee]- | [Ee] [B,EG]2 [B,^CG] | [DA][DAB][DAc][DAd]- | [DAd][DAc] [DAB]2 | %6
 [EGe]G/A/ B/c/B/G/ | E2 !^![EGe]2 ||{B,CD} [G,B,E][G,B,D][G,B,E][B,EG]- | %9
 [B,EG][B,E^F][B,EG][B,=FA] | [B,GB][^F=A][GB][EGe]- | [Ge][Gd][Ad][B_d] | [EAc]dec- | cded | %14
 !>!B2 !>!A2 | !>!G2 !>!F2 | [G,B,E][G,B,D][G,B,E][B,EG]- | [B,EG][B,E^F][B,EG][B,=FA] | %18
 [B,GB][^F=A][GB][Ee]- | [Ee][E=A][EB][Ec] | [Fd][Ec][DB][DBd] | [=EBd][EB] [_E=Ac]2 | %22
 [DFB](D/E/ F/G/F/D/) | B, z !>![Bdfb]2 |{B,CD} [G,B,E][G,B,D][G,B,E][B,EG]- | %25
 [B,EG][B,E^F][B,EG][B,=FA] | [B,GB][^F=A][GB][EGe]- | [Ge][Gd][Ad][B_d] | [EAc]dec- | cded | %30
 !>!B2 !>!A2 | !>!G2 !>!F2 | [EF=A][EFB][EFc][EFA]- | [EFA][EFB] [EFc]2 | [DFB][DFc][DFd][DFB]- | %35
 [DFB][DFc] [DFd]2 | [=EG][E=A][EB][EG] | [_E=A][EB] [Ec]2 | BB/B/ !>!BB | BBBG | %40
 [DA][DB][DA][DG]- | [DG] [DF]2 [^CG] | [DA][DB][DA][DG]- | [DG] [DF]3 | z [G,E]F^F | %45
 [EG] [EGd]2 [EGB] | c4- | c2 z2 | z [DA=B][DAc][DAB] | [DAc] [DAd]2 [DA=B] | %50
 [DAc][DAd][DA=B][DAc] | c2 z2 | z [E^F=A][EGB][EF] | [EG] [GB]3 | z [^F=A][GB][EF] | [EG]3 [^CG] | %56
 [DA][DB][DA][DG]- | [DG] [DF]2 [^CG] | [DA][DB][DA][DG]- | [DG] [DF]3 | z [G,E]F^F | %61
 [EG] [EGd]2 [EGB] | c4- | c[EG=B]cd | e2 e2 | e2 e2 | z [^Fc][Fcd][Fce]- | [Fce][^Fce][Fd][Fc] | %68
 d2 d2 | d2 d2 | z [=EB][EBc][EBd]- | [EBd][=EBc][EB][^CG] | [DA][DB][DA][DG]- | [DG] [DF]2 [^CG] | %74
 [DA][DB][DA][DG]- | [DG] [DF]2 [^CG] | [DA][DAB][DAc][DAd]- | [DAd][DAc] [DAB]2 | %78
 [EGe]G/A/ B/c/B/G/ | E z !>![EGe] z |] %80
V:2
 [E,,B,,]2 [B,,,B,,]2 | [E,,B,,]2 [B,,,B,,]2 | [E,,B,,]2 [B,,,B,,]2 | [E,,E,]2 [=E,,=E,]2 | %4
 [F,,F,]2 [B,,,B,,]2 | [F,,F,]2 [B,,,B,,]2 | [E,,B,,]G,/A,/ B,/C/B,/G,/ | E,2 !^![E,,E,]2 || %8
 [E,,B,,]2 [B,,,B,,]2 | [E,,B,,]2 [B,,,B,,]2 | [E,,B,,]2 [B,,,B,,]2 | [E,,B,,]E,,F,,G,, | %12
 A,,E, E,,E, | A,,E, E,,E, | !>![G,,G,]2 !>![F,,F,]2 | !>![E,,E,]2 !>![B,,,B,,]2 | %16
 [E,,B,,]2 [B,,,B,,]2 | [E,,B,,]2 [B,,,B,,]2 | [E,,B,,]2 [B,,,B,,]2 | [G,,G,]2 [_G,,_G,]2 | %20
 [F,,F,]2 [G,,G,]2 | [C,,C,]2 [F,,F,]2 | [B,,,B,,](D,/E,/ F,/G,/F,/D,/) | B,, z !>![B,,,B,,]2 | %24
 [E,,B,,]2 [B,,,B,,]2 | [E,,B,,]2 [B,,,B,,]2 | [E,,B,,]2 [B,,,B,,]2 | [E,,B,,]E,,F,,G,, | %28
 A,,E, E,,E, | A,,E, E,,E, | !>![G,,G,]2 !>![F,,F,]2 | !>![E,,E,]2 !>![B,,,B,,]2 | %32
"_Печатня В. Гроссе вь Москвѣ Б. Спасская ул соб. д." C,2 [F,,F,]2 | C,2 =A,,F,, | B,,2 F,,2 | %35
 B,,2 B,,B,,, | C,,2 C,2 | F,,2 F,F,, | B,,2 !>![B,,G,B,]2 | [B,,A,B,]2 z [=E,B,] | F,B, B,,B, | %41
 D,[F,B,] B,,[=E,B,] | F,B, B,,B, | D,[A,B,] B,,[A,B,] | [E,,E,]2 [B,,,B,,]2 | %45
 [E,,E,]2 [B,,,B,,]2 | [E,,E,]2 [B,,,B,,]2 | [E,,E,]B,,E,=E, | F,2 B,,2 | [F,,F,]2 [B,,,B,,]2 | %50
 [F,,F,]2 [B,,,B,,]2 | [F,,F,][B,,,B,,][C,,C,][D,,D,] | [E,,E,]2 [B,,,B,,]2 | [E,,E,]2 [B,,,B,,]2 | %54
 [E,,E,]2 [B,,,B,,]2 | [E,,E,][D,,D,][E,,E,][=E,,=E,] | F,B, B,,B, | D,[F,B,] B,,[=E,B,] | %58
 F,B, B,,B, | D,[A,B,] B,,[A,B,] | [E,,E,]2 [B,,,B,,]2 | [E,,E,]2 [B,,,B,,]2 | %62
 [E,,E,]2 [B,,,B,,]2 | [E,,E,]2 [G,,G,]2 | [A,,A,]2 [E,,E,]2 | [C,,C,]2 [A,,,A,,]2 | %66
 [=A,,,=A,,]2 [^F,,^F,]2 | [=A,,=A,]2 [^F,,^F,]2 | [G,,G,]2 [D,,D,]2 | [B,,,B,,]2 [G,,,G,,]2 | %70
 [C,,C,]2 [G,,,G,,]2 | [C,,C,]2 [G,,G,][=E,B,] | F,B, B,,B, | D,[F,B,] B,,[=E,B,] | F,B, B,,B, | %75
 D,[A,B,] B,,[=E,B,] | D,[A,B,] B,,[A,B,] | D,[A,B,] B,,[A,B,] | [E,,B,,E,]G,/A,/ B,/C/B,/G,/ | %79
 E, z !>![E,,E,] z |] %80
V:3
 x4 | x4 | x4 | x4 | x4 | x4 | x4 | x4 || x4 | x4 | x4 | !>!E4 | x4 | x4 | z [B,E] z [B,D] | %15
 z [B,E] z [B,D] | x4 | x4 | x4 | x4 | x4 | x4 | x4 | x4 | x4 | x4 | x4 | !>!E4 | x4 | x4 | %30
 z [B,E] z [B,D] | z [B,E] z [A,D] | x4 | x4 | x4 | x4 | x4 | x4 | D2 ^C2 | D3 ^C | x4 | x4 | x4 | %43
 x4 | x4 | x4 | z [B,EG] z [B,EG] | z [B,EG] z2 | x4 | x4 | x4 | z [DFA] z [DFA] | x4 | %53
 x2 z [B,EG] | x4 | x4 | x4 | x4 | x4 | x4 | x4 | x4 | z [B,EG] z [B,EG] | x4 | z [EAc] z [EAc] | %65
 z [EAc] z [EAc] | x4 | x4 | z [DGB] z [DGB] | z [DGB] z [DGB] | x4 | x4 | x4 | x4 | x4 | x4 | x4 | %77
 x4 | x4 | x4 |] %80

